public/clock.svg

<svg width="25" height="26" viewBox="0 0 25 26" fill="none" xmlns="http://www.w3.org/2000/svg">
<path d="M12.5327 0.57666C5.76239 0.57666 0.279907 6.07141 0.279907 12.8417C0.279907 19.612 5.76239 25.1068 12.5327 25.1068C19.3153 25.1068 24.81 19.612 24.81 12.8417C24.81 6.07141 19.3153 0.57666 12.5327 0.57666ZM17.451 17.7477C17.3375 17.8614 17.2027 17.9516 17.0544 18.0132C16.906 18.0747 16.7469 18.1064 16.5863 18.1064C16.4257 18.1064 16.2666 18.0747 16.1182 18.0132C15.9699 17.9516 15.8351 17.8614 15.7216 17.7477L11.6864 13.7125C11.5705 13.5989 11.4783 13.4635 11.4152 13.314C11.352 13.1645 11.3191 13.004 11.3185 12.8417V7.93569C11.3185 7.26112 11.8704 6.70919 12.545 6.70919C13.2195 6.70919 13.7715 7.26112 13.7715 7.93569V12.3389L17.451 16.0184C17.9293 16.4967 17.9293 17.2694 17.451 17.7477Z" fill="white"/>
</svg>

<svg xmlns="http://www.w3.org/2000/svg" width="25" height="26" fill="none"><path fill="#fff" d="M12.533.577C5.763.577.28 6.07.28 12.842c0 6.77 5.482 12.265 12.253 12.265 6.782 0 12.277-5.495 12.277-12.265 0-6.77-5.495-12.265-12.277-12.265Zm4.918 17.17a1.224 1.224 0 0 1-1.73 0l-4.035-4.034a1.225 1.225 0 0 1-.367-.871V7.936a1.23 1.23 0 0 1 1.226-1.227 1.23 1.23 0 0 1 1.226 1.227v4.403l3.68 3.68a1.221 1.221 0 0 1 0 1.729Z"/></svg>
